X:1
T:Title
%%score 1 2
L:1/8
Q:1/4=95
M:4/4
K:G
V:1 treble nm="Grand Piano, Soprano"
V:2 bass nm="Choir Pad, Arise, Christian Soldier"
V:1
 [B,D] [B,D]2 [B,G]- [B,G]/[CA]/ [DB]3 | [DB][DB][B,G][Ec] [DB][DB] .[DA]2 | %2
w: By~Edith~F.~Norton * * * * *||
 [CD] [CD]2 [CA]- [CA]/[C^G]/ [CA]3 | [CA][CA]D[DG] [DA] [DB]3 | %4
w: ||
 [B,D] [B,D]2 [B,G]- [B,G]/[CA]/ [DB]3 | [DB][DB][B,G][Ec] [DB][EA][CE][_B,F] | %6
w: ||
 [_B,G] [=B,D]2 [DB]- [DB] [CA]3 | [B,G] [B,G]3- [B,G]2- [B,G]/ z/ z | %8
w: ||
 [B,D] [GB]2 [GB]- [GB]/[G_B]/ [G=B]3 | [DB][DB][^DA][EG] [DA][=DB] .[B,D]2 | %10
w: ||
 [B,D] [Gd]2 [Gd]- [Gd]/[G^c]/ [Gd]3 | [Ge][Gd][DB][^CG] [CE] [=CA]3 | %12
w: ||
 [CD] [DB]2 [DB]- [DB]/[G_B]/ [G=B]3 | [DB][DB][^DA][EG] [DA][=DB][B,D][^DG] | %14
w: ||
 [Ge] [Gd]2 D- D/ z/ [CA]3 | [B,G] [B,G]3- [B,G]3- [B,G]/ z/ |] %16
w: ||
V:2
 [G,,G,] [G,,G,]2 [G,,D,]- [G,,D,]/[G,,D,]/ [G,,G,]3 | %1
 [G,,G,][G,,G,][G,,G,][G,,G,] [G,,G,][D,G,] .[D,F,]2 | %2
 [D,F,] [D,F,]2 [D,F,]- [D,F,]/[D,=F,]/ [D,^F,]3 | [D,F,][D,F,][C,F,][B,,G,] [A,,F,] [G,,G,]3 | %4
 [G,,G,] [G,,G,]2 [G,,D,]- [G,,D,]/[G,,D,]/ [G,,G,]3 | %5
 [G,,G,][G,,G,][G,,G,][G,,G,] [G,,G,][C,G,][C,G,][^C,G,] | [^C,G,] [D,G,]2 [D,G,]- [D,G,] [D,F,]3 | %7
 [G,,G,] [G,,G,]3- [G,,G,]2- [G,,G,]/ z/ z | G, [G,D]2 [G,D]- [G,D]/[G,^C]/ [G,D]3 | %9
 [G,,G,][G,,G,][G,,G,][G,,G,] [G,,G,][G,,G,] .[G,,G,]2 | %10
 G, [G,B,]2 [G,B,]- [G,B,]/[G,_B,]/ [G,=B,]3 | [G,C][G,B,][G,,G,][A,,G,] [A,,G,] [D,F,]3 | %12
 [D,F,] [G,,G,]2 [G,D]- [G,D]/[G,^C]/ [G,D]3 | %13
 [G,,G,][G,,G,][G,,G,][G,,G,] [G,,G,][G,,G,][G,,G,][C,G,] | [C,C] [D,B,]2 [D,B,]- [D,B,] [D,F,]3 | %15
 [G,,G,] [G,,D,]3- [G,,D,]3- [G,,D,]/ z/ |] %16

